packages/tokens/icons/accessibility/size32Px.svg

<svg viewBox="0 0 32 32" fill="none" xmlns="http://www.w3.org/2000/svg" width="1em" height="1em"><path d="M7.49999 7.5L7.55841 7.00342L7.5293 7L7.5 7L7.49999 7.5ZM24.5 7.5V7H24.4707L24.4416 7.00342L24.5 7.5ZM24.5 9.5V9H24.4586L24.4178 9.0068L24.5 9.5ZM18.5 10.5L18.4178 10.0068L18 10.0764V10.5H18.5ZM18.5 16H18V16.0983L18.0372 16.1893L18.5 16ZM23 27L23.4743 26.8419L23.4691 26.8261L23.4628 26.8107L23 27ZM21 27.5L21.4743 27.3419L21.4631 27.3082L21.4472 27.2764L21 27.5ZM16 17.5L16.4472 17.2764C16.3625 17.107 16.1894 17 16 17C15.8106 17 15.6375 17.107 15.5528 17.2764L16 17.5ZM11 27.5L10.5528 27.2764L10.5369 27.3082L10.5257 27.3419L11 27.5ZM9 27L8.53723 26.8107L8.53092 26.8261L8.52566 26.8419L9 27ZM13.5 16L13.9628 16.1893L14 16.0983V16H13.5ZM13.5 10.5H14V10.0764L13.5822 10.0068L13.5 10.5ZM7.5 9.5L7.5822 9.0068L7.54138 9H7.5L7.5 9.5ZM16 8.5L15.9416 8.99658L16 9.00345L16.0584 8.99658L16 8.5ZM18.5822 10.9932L24.5822 9.9932L24.4178 9.0068L18.4178 10.0068L18.5822 10.9932ZM19 16V10.5H18V16H19ZM18.0372 16.1893L22.5372 27.1893L23.4628 26.8107L18.9628 15.8107L18.0372 16.1893ZM21.4472 27.2764L16.4472 17.2764L15.5528 17.7236L20.5528 27.7236L21.4472 27.2764ZM13.0372 15.8107L8.53723 26.8107L9.46277 27.1893L13.9628 16.1893L13.0372 15.8107ZM13 10.5V16H14V10.5H13ZM7.4178 9.9932L13.4178 10.9932L13.5822 10.0068L7.5822 9.0068L7.4178 9.9932ZM11.4472 27.7236L16.4472 17.7236L15.5528 17.2764L10.5528 27.2764L11.4472 27.7236ZM24.4416 7.00342L15.9416 8.00342L16.0584 8.99658L24.5584 7.99658L24.4416 7.00342ZM16.0584 8.00342L7.55841 7.00342L7.44157 7.99658L15.9416 8.99658L16.0584 8.00342ZM24.5 10C24.9914 10 25.4053 9.83318 25.6977 9.54147C25.9854 9.25442 26.1266 8.87466 26.1271 8.50071C26.1277 8.1267 25.9875 7.74631 25.6994 7.4587C25.4068 7.16648 24.9923 7 24.5 7V8C24.7605 8 24.9099 8.08352 24.9928 8.1663C25.0804 8.25369 25.1273 8.3733 25.1271 8.49929C25.127 8.62534 25.0796 8.74558 24.9914 8.83353C24.9079 8.91682 24.7586 9 24.5 9V10ZM7.5 7C7.00854 7 6.59479 7.16684 6.30269 7.45894C6.0153 7.74634 5.875 8.12632 5.875 8.5C5.875 8.87368 6.0153 9.25365 6.3027 9.54105C6.5948 9.83315 7.00854 10 7.5 10L7.5 9C7.24146 9 7.0927 8.91684 7.0098 8.83395C6.9222 8.74634 6.875 8.62632 6.875 8.49999C6.875 8.37367 6.9222 8.25365 7.0098 8.16605C7.0927 8.08315 7.24145 8 7.49999 8L7.5 7ZM22.5257 27.1581C22.6153 27.4269 22.577 27.5939 22.5276 27.6866C22.4756 27.784 22.3806 27.8582 22.2537 27.8899C22.0163 27.9493 21.6447 27.853 21.4743 27.3419L20.5257 27.6581C20.8553 28.647 21.7337 29.0507 22.4963 28.8601C22.8694 28.7668 23.2119 28.5285 23.4099 28.1572C23.6105 27.7811 23.6347 27.3231 23.4743 26.8419L22.5257 27.1581ZM8.52566 26.8419C8.36527 27.3231 8.38953 27.7811 8.59007 28.1572C8.78812 28.5285 9.13061 28.7668 9.50373 28.8601C10.2663 29.0507 11.1447 28.647 11.4743 27.6581L10.5257 27.3419C10.3553 27.853 9.98372 27.9493 9.74627 27.8899C9.61939 27.8582 9.52438 27.784 9.47243 27.6866C9.42297 27.5939 9.38473 27.4269 9.47434 27.1581L8.52566 26.8419Z" fill="currentColor"/><path d="M16 6C16.8284 6 17.5 5.32843 17.5 4.5C17.5 3.67157 16.8284 3 16 3C15.1716 3 14.5 3.67157 14.5 4.5C14.5 5.32843 15.1716 6 16 6Z" stroke="currentColor" stroke-linecap="round" stroke-linejoin="round"/></svg>

<svg xmlns="http://www.w3.org/2000/svg" fill="none" viewBox="0 0 32 32" width="1em" height="1em"><path fill="currentColor" d="m7.5 7.5.058-.497L7.53 7H7.5v.5Zm17 0V7h-.03l-.028.003.058.497Zm0 2V9h-.041l-.041.007.082.493Zm-6 1-.082-.493-.418.07v.423h.5Zm0 5.5H18v.098l.037.091L18.5 16ZM23 27l.474-.158-.005-.016-.006-.015L23 27Zm-2 .5.474-.158-.01-.034-.017-.032L21 27.5Zm-5-10 .447-.224a.5.5 0 0 0-.894 0L16 17.5Zm-5 10-.447-.224-.016.032-.011.034.474.158ZM9 27l-.463-.19-.006.016-.005.016L9 27Zm4.5-11 .463.19.037-.092V16h-.5Zm0-5.5h.5v-.424l-.418-.07-.082.494Zm-6-1 .082-.493L7.542 9H7.5v.5Zm8.5-1-.058.497.058.006.058-.006L16 8.5Zm2.582 2.493 6-1-.164-.986-6 1 .164.986ZM19 16v-5.5h-1V16h1Zm-.963.19 4.5 11 .926-.38-4.5-11-.926.38Zm3.41 11.086-5-10-.894.448 5 10 .894-.448Zm-8.41-11.465-4.5 11 .926.378 4.5-11-.926-.378ZM13 10.5V16h1v-5.5h-1Zm-5.582-.507 6 1 .164-.986-6-1-.164.986Zm4.03 17.73 5-10-.895-.447-5 10 .894.448Zm12.994-20.72-8.5 1 .116.994 8.5-1-.116-.994Zm-8.384 1-8.5-1-.116.994 8.5 1 .116-.994ZM24.5 10c.491 0 .905-.167 1.198-.459a1.47 1.47 0 0 0 .43-1.04c0-.374-.14-.755-.429-1.042C25.407 7.166 24.992 7 24.5 7v1c.26 0 .41.084.493.166a.466.466 0 0 1 .134.333.47.47 0 0 1-.136.335c-.083.083-.232.166-.491.166v1Zm-17-3c-.491 0-.905.167-1.197.459A1.47 1.47 0 0 0 5.875 8.5c0 .374.14.754.428 1.041.292.292.706.459 1.197.459V9c-.259 0-.407-.083-.49-.166a.47.47 0 0 1-.135-.334.47.47 0 0 1 .135-.334C7.093 8.083 7.24 8 7.5 8V7Zm15.026 20.158c.09.269.051.436.002.529a.416.416 0 0 1-.274.203c-.238.06-.61-.037-.78-.548l-.948.316c.33.989 1.208 1.393 1.97 1.202.373-.093.716-.331.914-.703.2-.376.225-.834.064-1.315l-.948.316Zm-14-.316c-.16.481-.136.94.064 1.315.198.372.54.61.914.703.762.19 1.64-.213 1.97-1.202l-.948-.316c-.17.511-.542.607-.78.548a.416.416 0 0 1-.274-.203c-.049-.093-.087-.26.002-.529l-.948-.316Z"/><path stroke="currentColor" stroke-linecap="round" stroke-linejoin="round" d="M16 6a1.5 1.5 0 1 0 0-3 1.5 1.5 0 0 0 0 3Z"/></svg>
